X: 33874
T: Red Crow, The
R: reel
M: 4/4
K: Edorian
|:E2 BE FDDF|E2 Bd cABd|edBA BEEA|BGAG FDDF|E2 BE FDDF|
E2 Bd cABd|1 edBA BEEG|AFDF E2 (3DEF:|2 edBA BEEG|AFDF E2 e2||
e2 be gbeg|begb agfe|d2 ag fadf|adfa bagf|
e2 be gbeg|begf edBA|edB^G A=cBA|GEFD E2 ed|
e2 be gbeg|begb agfe|d2 ag fadf|adfa bagf|
e2 eE dEcE|e2 ge fedf|gefd edBA|BGAF GEFD||

